exported-svg/cloud-off.svg

<svg height="24" viewBox="0 0 24 24" width="24" xmlns="http://www.w3.org/2000/svg"><path d="m5.34537805 4.63827127c.00544356.00520055.01078278.01053846.01601215.01601215l14.6846951 14.68469508c.0052372.0050132.010369.0101442.0153946.0153946l3.2920735 3.2920735c.1952621.1952622.1952621.5118446 0 .7071068-.1952622.1952621-.5118446.1952621-.7071068 0l-3.0823783-3.0823784c-.5069044.1509712-1.0335601.2282012-1.5640683.228825l-8.99194412-.0000649c-3.90141728.0628669-7.34456693-2.5385891-8.34994695-6.3087641-.94850937-3.5569102.50261751-7.29209249 3.53720318-9.28875211l-3.5488655-3.5488655c-.19526215-.19526215-.19526215-.51184463 0-.70710678s.51184463-.19526215.70710678 0l3.9918245 3.9918245zm-.42600862.98820494c-2.7957197 1.73158136-4.14987108 5.10136139-3.29502556 8.30703209.88710001 3.3266251 3.92517324 5.6220274 7.37565613 5.5664917l8.9994118.0000003c.2459067-.0002892.4909067-.020733.7325778-.0609039zm13.08003787 3.87352414c1.8457889-.00218807 3.5696039.92163685 4.5898862 2.45980645 1.0202822 1.5381695 1.2009733 3.4855631.4811138 5.1851936-.1076957.2542759-.4011317.3731026-.6554077.2654069-.2542759-.1076957-.3731026-.4011317-.2654069-.6554077.588976-1.3906067.4411379-2.9839287-.3936385-4.2424311-.8347764-1.2585023-2.2451706-2.0143591-3.7559542-2.0125685h-1.26c-.2287447 0-.4283205-.155231-.4846195-.3769393-.7843374-3.08876131-3.4349449-5.3445975-6.609375-5.62499998-.27507134-.02429749-.47836371-.26698388-.45406622-.54205522s.26698388-.47836371.54205522-.45406622c3.4672599.3062686 6.3831185 2.69197566 7.3856799 5.99806083z"/></svg>

<?xml version="1.0" encoding="UTF-8"?>
<svg width="24px" height="24px" viewBox="0 0 24 24" version="1.1" xmlns="http://www.w3.org/2000/svg" xmlns:xlink="http://www.w3.org/1999/xlink">
    <!-- Generator: Sketch 55.2 (78181) - https://sketchapp.com -->
    <title>cloud-off</title>
    <desc>Created with Sketch.</desc>
    <g id="cloud-off" stroke="none" stroke-width="1" fill="none" fill-rule="evenodd">
        <path d="M5.34537805,4.63827127 C5.35082161,4.64347182 5.35616083,4.64880973 5.3613902,4.65428342 L20.0460853,19.3389785 C20.0513225,19.3439917 20.0564543,19.3491227 20.0614799,19.3543731 L23.3535534,22.6464466 C23.5488155,22.8417088 23.5488155,23.1582912 23.3535534,23.3535534 C23.1582912,23.5488155 22.8417088,23.5488155 22.6464466,23.3535534 L19.5640683,20.271175 C19.0571639,20.4221462 18.5305082,20.4993762 18,20.5 L9.00805588,20.4999351 C5.1066386,20.562802 1.66348895,17.961346 0.658108928,14.191171 C-0.290400443,10.6342608 1.16072644,6.89907851 4.19531211,4.90241889 L0.646446609,1.35355339 C0.451184464,1.15829124 0.451184464,0.841708755 0.646446609,0.646446609 C0.841708755,0.451184464 1.15829124,0.451184464 1.35355339,0.646446609 L5.34537789,4.63827111 Z M4.91936943,5.62647621 C2.12364973,7.35805757 0.769498346,10.7278376 1.62434387,13.9335083 C2.51144388,17.2601334 5.54951711,19.5555357 9,19.5 L17.9994118,19.5000003 C18.2453185,19.4997111 18.4903185,19.4792673 18.7319896,19.4390964 L4.91936943,5.62647621 Z M17.9994073,9.50000035 C19.8451962,9.49781228 21.5690112,10.4216372 22.5892935,11.9598068 C23.6095757,13.4979763 23.7902668,15.4453699 23.0704073,17.1450004 C22.9627116,17.3992763 22.6692756,17.518103 22.4149996,17.4104073 C22.1607237,17.3027116 22.041897,17.0092756 22.1495927,16.7549996 C22.7385687,15.3643929 22.5907306,13.7710709 21.7559542,12.5125685 C20.9211778,11.2540662 19.5107836,10.4982094 18,10.5 L16.74,10.5 C16.5112553,10.5 16.3116795,10.344769 16.2553805,10.1230607 C15.4710431,7.03429939 12.8204356,4.7784632 9.6460055,4.49806072 C9.37093416,4.47376323 9.16764179,4.23107684 9.19193928,3.9560055 C9.21623677,3.68093416 9.45892316,3.47764179 9.7339945,3.50193928 C13.2012544,3.80820788 16.117113,6.19391494 17.1196744,9.50000011 L17.9994073,9.50000035 Z" id="Combined-Shape" fill="#000000" fill-rule="nonzero"></path>
    </g>
</svg>
